packages/core/svg/outlined/room.svg

<?xml version="1.0" standalone="no"?><!DOCTYPE svg PUBLIC "-//W3C//DTD SVG 1.1//EN" "http://www.w3.org/Graphics/SVG/1.1/DTD/svg11.dtd"><svg t="1658902691433" class="icon" viewBox="0 0 1024 1024" version="1.1" xmlns="http://www.w3.org/2000/svg" p-id="23102" xmlns:xlink="http://www.w3.org/1999/xlink" width="200" height="200"><defs><style type="text/css">@font-face { font-family: feedback-iconfont; src: url("//at.alicdn.com/t/font_1031158_u69w8yhxdu.woff2?t=1630033759944") format("woff2"), url("//at.alicdn.com/t/font_1031158_u69w8yhxdu.woff?t=1630033759944") format("woff"), url("//at.alicdn.com/t/font_1031158_u69w8yhxdu.ttf?t=1630033759944") format("truetype"); }
</style></defs><path d="M632.704 80.32a16 16 0 0 1 0.32 3.072v857.216a16 16 0 0 1-19.072 15.744L161.92 868.992a32 32 0 0 1-25.92-31.36V186.368a32 32 0 0 1 25.92-31.424l452.032-87.36a16 16 0 0 1 18.752 12.672z m-71.68 70.912L208 219.52v585.152l353.024 68.16V151.232z m310.976 8.768a16 16 0 0 1 16 16v672a16 16 0 0 1-16 16h-190.976v-72h134.976v-560h-135.04V160h191.04zM441.024 444.352c30.912 0 56 30.464 56 68.032s-25.088 67.968-56 67.968c-30.976 0-56-30.4-56-67.968 0-37.568 25.024-68.032 56-68.032z" p-id="23103"></path></svg>

<?xml version="1.0" standalone="no"?><!DOCTYPE svg PUBLIC "-//W3C//DTD SVG 1.1//EN" "http://www.w3.org/Graphics/SVG/1.1/DTD/svg11.dtd"><svg t="1678332344030" class="icon" viewBox="0 0 1024 1024" version="1.1" xmlns="http://www.w3.org/2000/svg" p-id="2464" xmlns:xlink="http://www.w3.org/1999/xlink" width="200" height="200"><path d="M632.704 80.32a16 16 0 0 1 0.32 3.072v857.216a16 16 0 0 1-19.072 15.744l-452.032-87.36a32 32 0 0 1-25.92-31.36V186.368a32 32 0 0 1 25.92-31.424l452.032-87.36a16 16 0 0 1 18.752 12.672v0.064z m-71.68 70.912L208 219.52v585.152l353.024 68.16v-721.6zM872 160a16 16 0 0 1 16 16v672a16 16 0 0 1-16 16H681.024v-72H816V232H680.96v-72H872zM441.024 444.352c30.912 0 56 30.464 56 68.032s-25.088 67.968-56 67.968c-30.976 0-56-30.4-56-67.968 0-37.568 25.024-68.032 56-68.032z" p-id="2465"></path></svg>
